X: 1
T: Banks of Lough Gowna
M: 6/8
L: 1/8
R: jig
K: Ador
ABG AGE|EDE G3|ABG AGE|c2d edc|
ABG AGE|EDE G3|cde ged|1 BcB A2G:|2 BcB A2B||
cde g2a|gea ged|cde g2a|geg a2B|
cde g2a|gea ged|cde ged|1 cAA A2B:|2 BcB A3|]
